X: 124
T:Sparro
T:Not Pigeon on the Gate
R:Reel
C:Trad.
S:SRSNH 8.2
Z:Name given by Alf 
M:2/2
L:1/8
Q:1/2=112
K:D
|:af|eAA/2A/2A ABcd|eAA/2A/2A a2af|eAA/2A/2A ABcd|
ef=ge d2cd|eAA/2A/2A ABcA|EAA/2A/2A a2af|eAA/2A/2A ABcd|
efge d2::cd|eaaf gfed|eaaf g2fg|eaaf gfed|
efge d2cd|eaaf gfed|eaaf g2fg|afge fdec|dBB/2B/2B g2:|
